X:1
T: Cottonwood
N:
C:
S:
A:
O:
R:
M:6/8
K:Am
I:speed 150
%W: A1
% voice 1 (1 lines, 41 notes)
K:Am
M:6/8
L:1/16
c2 A2 A2 e2 d2 d2 d6 c2 B2 A2 F2 A2 c2 e2 d2 d2 d3 _e d2 d4 B2 |c2 A2 A2 e2 d2 d2 d6 c2 B2 A2 F2 A2 c2 a4 g2 g4 d2 d2 c2 B2 |
%W: A2
% voice 1 (1 lines, 41 notes)
c2 A2 A2 e2 d2 d2 d6 c2 B2 A2 F2 A2 c2 e2 d2 d2 d3 _e d2 d4 B2 |c2 A2 A2 e2 d2 d2 d6 c2 B2 A2 F2 A2 c2 a4 g2 d2 B2 c2 A4 B2 |
%W: B1
% voice 1 (1 lines, 42 notes)
A2 G2 E2 B2 G2 E2 c2 A2 E2 d2 B2 c2 d6 g4 e2 d2 B2 c2 A4 G2 |F2 A2 d2 E2 A2 d2 D2 A2 d2 g4 e2 a2 g2 e2 c2 B2 A2 G4 E2 D2 E2 G2 |
%W: B2
% voice 1 (1 lines, 41 notes)
A2 G2 E2 B2 G2 E2 c2 A2 E2 d2 B2 c2 d6 g4 e2 d2 B2 c2 A4 G2 |F2 A2 d2 E2 A2 d2 D2 A2 d2 g4 e2 a2 g2 e2 c2 B2 A2 d2 B2 c2 A6 ||
